X:47
T:Haste to the Wedding *NEW!* Requested by Robert Martin
R:Jig
O:Cape Breton
M:6/8
C:Traditional
K:D maj.
A3||:AFA Adf|ede fdB|AFF dAF|EFE E2 B|AFG Adf|ede fdB|AFA faf|1.ddd d2 A:|\2.ddd dfg|aaa afa|b2 b bgb|aaa agf|gfg efg|aba faf| ede fdB|AFA faf|1.ddd dfg:|\2.ddd d2||
